;START_OF_HEADER
;HEADER_VERSION:0.1
;FLAVOR:Griffin
;GENERATOR.NAME:Cura_SteamEngine
;GENERATOR.VERSION:4.9.1
;GENERATOR.BUILD_DATE:2021-05-10
;TARGET_MACHINE.NAME:Ultimaker 3
;EXTRUDER_TRAIN.0.INITIAL_TEMPERATURE:220
;EXTRUDER_TRAIN.0.MATERIAL.VOLUME_USED:11564
;EXTRUDER_TRAIN.0.MATERIAL.GUID:506c9f0d-e3aa-4bd4-b2d2-23e2425b1aa9
;EXTRUDER_TRAIN.0.NOZZLE.DIAMETER:0.4
;EXTRUDER_TRAIN.0.NOZZLE.NAME:AA 0.4
;BUILD_PLATE.TYPE:glass
;BUILD_PLATE.INITIAL_TEMPERATURE:60
;PRINT.TIME:3305
;PRINT.GROUPS:1
;PRINT.SIZE.MIN.X:9
;PRINT.SIZE.MIN.Y:6
;PRINT.SIZE.MIN.Z:0.27
;PRINT.SIZE.MAX.X:178.758
;PRINT.SIZE.MAX.Y:163.36
;PRINT.SIZE.MAX.Z:19.77
;END_OF_HEADER
;Generated with Cura_SteamEngine 4.9.1
T0
M82 ;absolute extrusion mode

G92 E0
M109 S220
G0 F15000 X9 Y6 Z2
G280
G1 F1200 E-6.5
;LAYER_COUNT:66
;LAYER:0
M107
M204 S625
M205 X6 Y6
G1 F600 Z2.27
G0 F4333.3 X55.314 Y52.556 Z2.27
M204 S500
M205 X5 Y5
;TYPE:SKIRT
G1 F600 Z0.27
G1 F1200 E0
G1 F1560 X55.704 Y52.233 E0.009
G1 X56.14 Y51.975 E0.01801
G1 X56.611 Y51.789 E0.02701
G1 X57.106 Y51.68 E0.03602
G1 X57.781 Y51.641 E0.04804
G1 X75.337 Y51.64 E0.36011
G1 X76.186 Y51.653 E0.37521
G1 X76.738 Y51.686 E0.38504
G1 X77.563 Y51.805 E0.39985
G1 X78.345 Y52.002 E0.41419
G1 X79.163 Y52.303 E0.42968
G1 X79.969 Y52.701 E0.44566
G1 X80.557 Y53.03 E0.45764
G1 X86.556 Y56.494 E0.58078
G1 X88.991 Y57.854 E0.63036
G1 X91.41 Y59.117 E0.67886
G1 X93.875 Y60.317 E0.7276
G1 X96.375 Y61.447 E0.77637
G1 X98.889 Y62.5 E0.82482
G1 X101.49 Y63.504 E0.87438
G1 X104.007 Y64.392 E0.92182
G1 X106.655 Y65.244 E0.97127
G1 X109.945 Y66.188 E1.03211
G1 X136.154 Y73.212 E1.51444
G1 X137.559 Y73.616 E1.54043
G1 X138.055 Y73.784 E1.54974
G1 X138.608 Y74.004 E1.56032
G1 X139.16 Y74.251 E1.57107
G1 X139.264 Y74.304 E1.57314
G1 X139.969 Y74.679 E1.58734
G1 X140.162 Y74.79 E1.5913
G1 X140.764 Y75.166 E1.60391
G1 X140.95 Y75.292 E1.60791
G1 X141.6 Y75.764 E1.62219
G1 X141.985 Y76.092 E1.63118
G1 X142.314 Y76.478 E1.64019
G1 X142.577 Y76.91 E1.64918
G1 X142.771 Y77.381 E1.65824
G1 X142.838 Y77.59 E1.66214
G1 X142.98 Y78.31 E1.67519
G1 X143.008 Y78.806 E1.68402
G1 X142.997 Y80.125 E1.70746
G1 X143.014 Y82.868 E1.75622
G1 X143.107 Y85.587 E1.80458
G1 X143.278 Y88.328 E1.8534
G1 X143.529 Y91.078 E1.90249
G1 X143.851 Y93.773 E1.95074
G1 X144.25 Y96.46 E1.99903
G1 X144.733 Y99.183 E2.04819
G1 X145.283 Y101.846 E2.09652
G1 X145.918 Y104.535 E2.14564
G1 X146.621 Y107.169 E2.1941
G1 X147.395 Y109.777 E2.24245
G1 X148.252 Y112.386 E2.29127
G1 X149.188 Y114.99 E2.34046
G1 X150.181 Y117.521 E2.38879
G1 X151.242 Y120.019 E2.43703
G1 X152.385 Y122.511 E2.48577
G1 X153.62 Y125.012 E2.53535
G1 X154.871 Y127.378 E2.58292
G1 X156.229 Y129.778 E2.63194
G1 X157.663 Y132.15 E2.68121
G1 X159.128 Y134.427 E2.72934
G1 X160.664 Y136.675 E2.77774
G1 X162.285 Y138.905 E2.82675
G1 X163.948 Y141.064 E2.87519
G1 X165.705 Y143.216 E2.92458
G1 X167.464 Y145.25 E2.97238
G1 X169.322 Y147.28 E3.0213
G1 X171.223 Y149.244 E3.06988
G1 X173.182 Y151.153 E3.11851
G1 X175.201 Y153.015 E3.16733
G1 X176.99 Y154.557 E3.20931
G1 X177.656 Y155.142 E3.22507
G1 X178.009 Y155.505 E3.23407
G1 X178.301 Y155.92 E3.24309
G1 X178.523 Y156.374 E3.25207
G1 X178.672 Y156.858 E3.26108
G1 X178.746 Y157.456 E3.27179
G1 X178.758 Y157.88 E3.27933
G1 X178.758 Y159.454 E3.30731
G1 X178.749 Y160.181 E3.32023
G1 X178.703 Y160.685 E3.32923
G1 X178.578 Y161.176 E3.33823
G1 X178.377 Y161.641 E3.34724
G1 X178.106 Y162.068 E3.35623
G1 X177.771 Y162.448 E3.36523
G1 X177.38 Y162.77 E3.37424
G1 X176.944 Y163.027 E3.38323
G1 X176.473 Y163.212 E3.39223
G1 X175.978 Y163.321 E3.40124
G1 X175.308 Y163.359 E3.41317
G1 X144.966 Y163.36 E3.95253
G1 X144.117 Y163.348 E3.96762
G1 X143.586 Y163.317 E3.97708
G1 X142.801 Y163.207 E3.99117
G1 X142.263 Y163.082 E4.00098
G1 X141.997 Y163.003 E4.00592
G1 X139.91 Y162.285 E4.04515
G1 X138.838 Y161.91 E4.06534
G1 X136.254 Y161.082 E4.11357
G1 X133.057 Y160.166 E4.17269
G1 X96.013 Y150.24 E4.85441
G1 X95.437 Y150.077 E4.86505
G1 X94.866 Y149.883 E4.87577
G1 X94.351 Y149.649 E4.88583
G1 X94.096 Y149.505 E4.89103
G1 X93.643 Y149.196 E4.90078
G1 X93.386 Y148.986 E4.90668
G1 X92.983 Y148.592 E4.9167
G1 X92.824 Y148.407 E4.92103
G1 X92.499 Y147.956 E4.93092
G1 X92.286 Y147.598 E4.93832
G1 X92.029 Y147.056 E4.94898
G1 X91.947 Y146.831 E4.95324
G1 X91.811 Y146.339 E4.96231
G1 X91.749 Y146.017 E4.96814
G1 X91.691 Y145.447 E4.97833
G1 X91.693 Y144.87 E4.98858
G1 X91.865 Y142.015 E5.03943
G1 X91.95 Y139.302 E5.08768
G1 X91.959 Y136.549 E5.13661
G1 X91.89 Y133.797 E5.18555
G1 X91.745 Y131.085 E5.23383
G1 X91.523 Y128.374 E5.28218
G1 X91.218 Y125.608 E5.33164
G1 X90.846 Y122.942 E5.37949
G1 X90.384 Y120.193 E5.42905
G1 X89.86 Y117.536 E5.47719
G1 X89.259 Y114.889 E5.52544
G1 X88.578 Y112.231 E5.57421
G1 X87.816 Y109.578 E5.62328
G1 X86.98 Y106.952 E5.67227
G1 X86.085 Y104.388 E5.72054
G1 X85.111 Y101.837 E5.76908
G1 X84.063 Y99.311 E5.81769
G1 X82.942 Y96.805 E5.86649
G1 X81.745 Y94.323 E5.91548
G1 X80.49 Y91.9 E5.96398
G1 X79.17 Y89.516 E6.01242
G1 X77.778 Y87.162 E6.06104
G1 X76.309 Y84.834 E6.10997
G1 X74.786 Y82.563 E6.15858
G1 X73.195 Y80.331 E6.2073
G1 X71.549 Y78.152 E6.25584
G1 X69.83 Y76.006 E6.30472
G1 X68.073 Y73.938 E6.35296
G1 X66.235 Y71.894 E6.40182
G1 X64.358 Y69.921 E6.45023
G1 X62.4 Y67.976 E6.49929
G1 X60.407 Y66.106 E6.54787
G1 X58.351 Y64.283 E6.59671
G1 X56.245 Y62.52 E6.64553
G1 X55.814 Y62.175 E6.65535
G1 X55.498 Y61.912 E6.66266
G1 X55.135 Y61.559 E6.67166
G1 X54.833 Y61.152 E6.68067
G1 X54.598 Y60.704 E6.68966
G1 X54.437 Y60.224 E6.69866
G1 X54.343 Y59.544 E6.71086
G1 X54.331 Y59.12 E6.7184
G1 X54.331 Y58.228 E6.73426
G1 X54.336 Y57.883 E6.74039
G1 X54.339 Y55.306 E6.7862
G1 X54.34 Y54.825 E6.79475
G1 X54.386 Y54.32 E6.80376
G1 X54.51 Y53.829 E6.81277
G1 X54.709 Y53.364 E6.82176
G1 X54.98 Y52.936 E6.83076
G1 X55.314 Y52.556 E6.83975
M204 S625
M205 X6 Y6
G1 F1200 E0.33975
;MESH:scale4.stl
G0 F4333.3 X54.501 Y52.556
G0 X54.513 Y62.478
G0 X92.277 Y147.266
G0 X92.701 Y148.009
G0 X93.243 Y148.654
G0 X93.883 Y149.195
G0 X94.613 Y149.619
G0 X95.297 Y149.872
G0 X142.719 Y163.033
G0 X144.227 Y163.189
G0 X178.576 Y163.178
G0 X178.576 Y154.522
G0 X140.488 Y154.549
G0 X140.118 Y158.057
G0 X140.233 Y158.191
M204 S500
M205 X5 Y5
;TYPE:WALL-INNER
G1 F1200 E6.83975
G1 F1560 X140.359 Y158.19 E6.84167
G1 X141.1 Y158.18 E6.85297
G1 X143.289 Y158.15 E6.88632
G1 X174.948 Y158.15 E7.3687
G1 X174.948 Y159.55 E7.39003
G1 X144.334 Y159.55 E7.85648
G1 X143.449 Y159.461 E7.87003
G1 X142.622 Y159.201 E7.88324
G1 X141.041 Y158.526 E7.90943
G1 X140.36 Y158.235 E7.91588
G1 X140.233 Y158.191 E7.9161
M204 S625
M205 X6 Y6
G0 F4333.3 X96.299 Y146.102
G0 X95.737 Y145.351
G0 X96.1 Y144.48
G0 X137.939 Y132.871
G0 X137.842 Y131.173
M204 S500
M205 X5 Y5
G1 F1560 X137.971 Y131.245 E7.91835
G1 X138.341 Y131.452 E7.92481
G1 X138.365 Y131.467 E7.92524
G1 X138.889 Y131.81 E7.93478
G1 X139.085 Y131.96 E7.93854
G1 X139.194 Y132.042 E7.94062
G1 X139.169 Y132.128 E7.94199
G1 X139.084 Y132.235 E7.94407
G1 X138.937 Y132.42 E7.94767
G1 X138.616 Y132.631 E7.95352
G1 X138.428 Y132.698 E7.95656
G1 X138.062 Y132.796 E7.96234
G1 X137.944 Y132.827 E7.96419
G1 X137.582 Y132.925 E7.96991
G1 X137.882 Y132.598 E7.97265
G1 X137.927 Y132.485 E7.97422
G1 X138.052 Y132.179 E7.97926
G1 X138.074 Y131.734 E7.98605
G1 X138.026 Y131.58 E7.98851
G1 X138.018 Y131.553 E7.98862
G1 X137.94 Y131.302 E7.99048
G1 X137.842 Y131.173 E7.99084
M204 S625
M205 X6 Y6
G0 F4333.3 X96.299 Y119.435
G0 X95.737 Y118.685
G0 X96.101 Y117.813
G0 X137.763 Y106.252
G0 X137.842 Y104.506
M204 S500
M205 X5 Y5
G1 F1560 X137.971 Y104.578 E7.99309
G1 X138.341 Y104.785 E7.99955
G1 X138.365 Y104.8 E7.99998
G1 X138.898 Y105.149 E8.00969
G1 X139.086 Y105.293 E8.0133
G1 X139.194 Y105.375 E8.01536
G1 X139.169 Y105.464 E8.01677
G1 X139.084 Y105.569 E8.01883
G1 X138.939 Y105.75 E8.02237
G1 X138.611 Y105.966 E8.02835
G1 X138.417 Y106.035 E8.03149
G1 X138.062 Y106.13 E8.03709
G1 X137.944 Y106.161 E8.03894
G1 X137.58 Y106.259 E8.04469
G1 X137.882 Y105.932 E8.04744
G1 X137.927 Y105.819 E8.04901
G1 X138.052 Y105.512 E8.05406
G1 X138.074 Y105.067 E8.06085
G1 X138.026 Y104.913 E8.06331
G1 X138.018 Y104.886 E8.06342
G1 X137.94 Y104.635 E8.06527
G1 X137.842 Y104.506 E8.06564
M204 S625
M205 X6 Y6
G0 F4333.3 X96.302 Y92.77
G0 X95.737 Y92.018
G0 X96.101 Y91.146
G0 X137.761 Y79.585
G0 X137.841 Y77.839
M204 S500
M205 X5 Y5
G1 F1560 X137.972 Y77.912 E8.06793
G1 X138.341 Y78.119 E8.07437
G1 X138.365 Y78.134 E8.0748
G1 X138.889 Y78.477 E8.08435
G1 X139.085 Y78.626 E8.0881
G1 X139.194 Y78.709 E8.09018
G1 X139.17 Y78.795 E8.09154
G1 X139.084 Y78.903 E8.09365
G1 X138.937 Y79.087 E8.09724
G1 X138.616 Y79.298 E8.10309
G1 X138.428 Y79.365 E8.10613
G1 X138.062 Y79.463 E8.1119
G1 X137.944 Y79.494 E8.11376
G1 X137.581 Y79.592 E8.11949
G1 X137.882 Y79.264 E8.12226
G1 X137.928 Y79.152 E8.12383
G1 X138.052 Y78.85 E8.1288
G1 X138.074 Y78.401 E8.13565
G1 X138.026 Y78.247 E8.13811
G1 X138.018 Y78.22 E8.13822
G1 X137.94 Y77.97 E8.14008
G1 X137.841 Y77.839 E8.14045
M204 S625
M205 X6 Y6
G0 F4333.3 X96.404 Y66.141
G0 X76.788 Y55.688
M204 S500
M205 X5 Y5
G1 F1560 X76.454 Y55.586 E8.14578
G1 X76.443 Y55.586 E8.14594
G1 X75.979 Y55.564 E8.15302
G1 X73.579 Y55.45 E8.18963
G1 X75.984 Y55.45 E8.19547
G1 X76.448 Y55.475 E8.19769
G1 X76.476 Y55.481 E8.19792
G1 X76.816 Y55.554 E8.19976
G1 X77.137 Y55.623 E8.20476
G1 X77.3 Y55.658 E8.2073
G1 X78.123 Y56.024 E8.22103
G1 X93.118 Y64.682 E8.48485
G1 X94.524 Y65.484 E8.50951
G1 X95.014 Y65.763 E8.5181
G1 X95.78 Y66.2 E8.53154
G1 X95.899 Y66.265 E8.53361
G1 X95.772 Y66.231 E8.53367
G1 X94.884 Y65.993 E8.53968
G1 X94.355 Y65.8 E8.54713
G1 X94.167 Y65.731 E8.55018
G1 X93.852 Y65.568 E8.55558
G1 X83.526 Y59.607 E8.73725
G1 X83.005 Y59.344 E8.74614
G1 X82.459 Y59.134 E8.75506
G1 X81.848 Y58.972 E8.76469
G1 X81.283 Y58.883 E8.7734
G1 X80.688 Y58.85 E8.78248
G1 X58.141 Y58.85 E9.12602
G1 X58.141 Y58.162 E9.1365
G1 X76.483 Y57.176 E9.41637
G1 X76.871 Y57.022 E9.42274
G1 X77.147 Y56.586 E9.4306
G1 X77.111 Y56.067 E9.43852
G1 X77.001 Y55.938 E9.44111
G1 X76.788 Y55.688 E9.44464
M204 S625
M205 X6 Y6
G0 F4333.3 X76.565 Y56.028
M204 S500
M205 X5 Y5
;TYPE:WALL-OUTER
G1 F1560 X76.386 Y55.973 E9.44813
G1 X65.953 Y55.479 E9.64308
G1 X57.751 Y55.092 E9.79634
G1 X57.751 Y55.06 E9.79694
G1 X65.962 Y55.06 E9.87943
G1 X75.987 Y55.06 E10.06654
G1 X76.501 Y55.088 E10.07615
G1 X77.42 Y55.285 E10.09369
G1 X78.306 Y55.679 E10.11179
G1 X93.312 Y64.344 E10.43521
G1 X95.97 Y65.859 E10.49232
G1 X96.418 Y66.104 E10.50185
G1 X136.064 Y76.728 E11.26794
G1 X136.708 Y76.925 E11.28051
G1 X137.36 Y77.177 E11.29356
G1 X137.959 Y77.459 E11.30591
G1 X138.549 Y77.789 E11.31853
G1 X139.119 Y78.162 E11.33125
G1 X139.564 Y78.5 E11.34168
G1 X139.598 Y78.71 E11.34565
G1 X139.523 Y78.977 E11.35082
G1 X139.203 Y79.379 E11.36041
G1 X138.792 Y79.649 E11.36959
G1 X138.537 Y79.74 E11.37464
G1 X96.431 Y91.022 E12.18827
G1 X96.125 Y91.177 E12.19467
G1 X95.91 Y91.411 E12.2006
G1 X95.791 Y91.703 E12.20648
G1 X95.776 Y92.013 E12.21228
G1 X95.869 Y92.314 E12.21816
G1 X96.061 Y92.567 E12.22409
G1 X96.319 Y92.735 E12.22983
G1 X96.442 Y92.777 E12.23226
G1 X136.056 Y103.392 E12.99773
G1 X136.712 Y103.593 E13.01054
G1 X137.36 Y103.844 E13.02351
G1 X137.959 Y104.125 E13.03585
G1 X138.549 Y104.455 E13.04847
G1 X139.119 Y104.828 E13.06119
G1 X139.564 Y105.167 E13.07163
G1 X139.598 Y105.377 E13.0756
G1 X139.522 Y105.646 E13.08082
G1 X139.203 Y106.044 E13.09034
G1 X138.787 Y106.318 E13.09963
G1 X138.533 Y106.408 E13.10466
G1 X96.431 Y117.689 E13.91821
G1 X96.125 Y117.844 E13.92461
G1 X95.91 Y118.077 E13.93053
G1 X95.791 Y118.37 E13.93643
G1 X95.776 Y118.68 E13.94222
G1 X95.869 Y118.978 E13.94805
G1 X96.061 Y119.234 E13.95402
G1 X96.316 Y119.4 E13.9597
G1 X96.439 Y119.443 E13.96213
G1 X136.064 Y130.061 E14.72782
G1 X136.717 Y130.26 E14.74056
G1 X137.347 Y130.505 E14.75318
G1 X137.959 Y130.792 E14.76579
G1 X138.549 Y131.122 E14.77841
G1 X139.119 Y131.495 E14.79112
G1 X139.564 Y131.833 E14.80155
G1 X139.598 Y132.046 E14.80558
G1 X139.523 Y132.31 E14.8107
G1 X139.203 Y132.712 E14.82029
G1 X138.792 Y132.982 E14.82947
G1 X138.537 Y133.073 E14.83453
G1 X96.431 Y144.356 E15.64815
G1 X96.124 Y144.511 E15.65457
G1 X95.91 Y144.744 E15.66048
G1 X95.791 Y145.036 E15.66636
G1 X95.776 Y145.346 E15.67215
G1 X95.869 Y145.646 E15.67802
G1 X96.061 Y145.9 E15.68396
G1 X96.316 Y146.067 E15.68965
G1 X96.439 Y146.11 E15.69208
G1 X140.041 Y157.793 E16.53461
G1 X140.125 Y157.803 E16.53619
G1 X143.284 Y157.76 E16.59516
G1 X175.338 Y157.76 E17.19344
G1 X175.338 Y159.94 E17.23413
G1 X144.315 Y159.94 E17.81316
G1 X143.37 Y159.845 E17.83089
G1 X142.484 Y159.566 E17.84823
G1 X140.219 Y158.599 E17.8942
G1 X139.511 Y158.354 E17.90818
G1 X96.283 Y146.772 E18.74348
G1 X95.762 Y146.528 E18.75422
G1 X95.375 Y146.141 E18.76443
G1 X95.144 Y145.645 E18.77464
G1 X95.096 Y145.091 E18.78502
G1 X95.24 Y144.558 E18.79533
G1 X95.555 Y144.109 E18.80556
G1 X96.009 Y143.79 E18.81592
G1 X96.267 Y143.697 E18.82104
G1 X137.022 Y132.775 E19.60856
G1 X137.332 Y132.62 E19.61503
G1 X137.547 Y132.386 E19.62097
G1 X137.666 Y132.094 E19.62685
G1 X137.681 Y131.784 E19.63264
G1 X137.588 Y131.483 E19.63852
G1 X137.396 Y131.23 E19.64445
G1 X137.141 Y131.063 E19.65014
G1 X137.018 Y131.02 E19.65257
G1 X96.279 Y120.104 E20.43978
G1 X95.764 Y119.863 E20.45039
G1 X95.375 Y119.474 E20.46066
G1 X95.144 Y118.978 E20.47087
G1 X95.096 Y118.425 E20.48123
G1 X95.24 Y117.891 E20.49156
G1 X95.555 Y117.442 E20.50179
G1 X96.01 Y117.123 E20.51217
G1 X96.275 Y117.027 E20.51743
G1 X137.026 Y106.108 E21.30487
G1 X137.332 Y105.953 E21.31127
G1 X137.547 Y105.72 E21.31719
G1 X137.666 Y105.427 E21.32309
G1 X137.681 Y105.117 E21.32888
G1 X137.588 Y104.816 E21.33476
G1 X137.396 Y104.563 E21.34069
G1 X137.141 Y104.397 E21.34637
G1 X137.018 Y104.354 E21.3488
G1 X96.279 Y93.437 E22.13601
G1 X96.004 Y93.336 E22.14148
G1 X95.552 Y93.018 E22.1518
G1 X95.375 Y92.808 E22.15692
G1 X95.144 Y92.312 E22.16713
G1 X95.096 Y91.758 E22.17751
G1 X95.24 Y91.224 E22.18784
G1 X95.555 Y90.775 E22.19807
G1 X96.009 Y90.457 E22.20842
G1 X96.275 Y90.361 E22.2137
G1 X137.026 Y79.441 E23.00114
G1 X137.333 Y79.286 E23.00756
G1 X137.548 Y79.052 E23.01349
G1 X137.666 Y78.764 E23.0193
G1 X137.681 Y78.451 E23.02515
G1 X137.588 Y78.151 E23.03101
G1 X137.396 Y77.897 E23.03695
G1 X137.141 Y77.73 E23.04264
G1 X137.018 Y77.687 E23.04508
G1 X94.772 Y66.367 E23.8614
G1 X94.008 Y66.088 E23.87659
G1 X93.661 Y65.908 E23.88388
G1 X83.34 Y59.95 E24.10631
G1 X82.847 Y59.701 E24.11662
G1 X82.339 Y59.506 E24.12678
G1 X81.767 Y59.354 E24.13783
G1 X81.242 Y59.271 E24.14775
G1 X80.677 Y59.24 E24.15831
G1 X57.751 Y59.24 E24.58622
G1 X57.751 Y57.793 E24.61323
G1 X76.398 Y56.79 E24.96177
G1 X76.609 Y56.706 E24.96601
G1 X76.749 Y56.485 E24.97089
G1 X76.731 Y56.222 E24.97581
G1 X76.565 Y56.028 E24.98058
M204 S625
M205 X6 Y6
G0 F4333.3 X76.386 Y55.973
G0 X76.374 Y55.973
G0 X76.396 Y55.512
G0 X77.498 Y56.162
M204 S500
M205 X5 Y5
;TYPE:SKIN
G1 F1560 X77.948 Y56.362 E24.98933
G1 X81.786 Y58.578 E25.06811
G1 X81.323 Y58.505 E25.07644
G1 X80.699 Y58.47 E25.08755
G1 X59.503 Y58.47 E25.46433
G1 X76.565 Y57.552 E25.76807
G1 X77.126 Y57.33 E25.77879
G1 X77.535 Y56.683 E25.7924
G1 X77.498 Y56.162 E25.80168
M204 S625
M205 X6 Y6
G0 F4333.3 X80.881 Y58.31
M204 S500
M205 X5 Y5
G1 F1560 X80.675 Y58.105 E25.80685
M204 S625
M205 X6 Y6
G0 F4333.3 X80.301 Y58.324
M204 S500
M205 X5 Y5
G1 F1560 X79.27 Y57.293 E25.83277
M204 S625
M205 X6 Y6
G0 F4333.3 X79.113 Y58.324
M204 S500
M205 X5 Y5
G1 F1560 X77.614 Y56.825 E25.87045
M204 S625
M205 X6 Y6
G0 F4333.3 X77.868 Y56.485
M204 S500
M205 X5 Y5
G1 F1560 X79.707 Y58.324 E25.91668
M204 S625
M205 X6 Y6
G0 F4333.3 X78.519 Y58.324
M204 S500
M205 X5 Y5
G1 F1560 X77.385 Y57.19 E25.94519
M204 S625
M205 X6 Y6
G0 F4333.3 X77.097 Y57.496
M204 S500
M205 X5 Y5
G1 F1560 X77.925 Y58.324 E25.966
M204 S625
M205 X6 Y6
G0 F4333.3 X77.332 Y58.324
M204 S500
M205 X5 Y5
G1 F1560 X76.673 Y57.665 E25.98257
M204 S625
M205 X6 Y6
G0 F4333.3 X76.134 Y57.721
M204 S500
M205 X5 Y5
G1 F1560 X76.738 Y58.324 E25.99774
M204 S625
M205 X6 Y6
